X: 16411
T: Gypsy Princess
R: barndance
M: 4/4
K: Gmajor
|:(B2 B)B B2B2|ABAG E2 D2|(G2G)B d2 Bd|e2dB A2 GA|
(B2 B)B B2B2|ABAG E2 D2|(G2G)B dedB|1 A2 G2 (G2 G)A:|2 A2 G2 (G2 G)B||
|:(d2 d)d d2 d2|ABBA GABd|(e2 e)e e2 e2|ABBA GABc|
(d2 d)d d2 d2|ABBA GABd|g2 ge dBAc|1 B2 G2 G2 GB:|2 B2 G2 G2 GA||

